assets/icons/24px/stroke/expand-horizontal-24px.svg

<svg width="24" height="24" viewBox="0 0 24 24" fill="none" xmlns="http://www.w3.org/2000/svg">
<path fill-rule="evenodd" clip-rule="evenodd" d="M9.57308 6.284C9.96851 6.66955 9.97653 7.30266 9.59098 7.6981L7.43857 9.9057C6.776 10.5853 6.34999 11.0252 6.07744 11.3909C5.82221 11.7334 5.79327 11.8936 5.79327 12C5.79327 12.1064 5.82221 12.2666 6.07744 12.6091C6.34999 12.9748 6.776 13.4147 7.43857 14.0943L9.59098 16.3019C9.97653 16.6973 9.96851 17.3305 9.57308 17.716C9.17764 18.1016 8.54453 18.0935 8.15898 17.6981L5.96133 15.4441C5.35691 14.8243 4.83532 14.2894 4.47375 13.8042C4.08589 13.2837 3.79327 12.7072 3.79327 12C3.79327 11.2928 4.08589 10.7163 4.47375 10.1958C4.83532 9.71065 5.3569 9.17575 5.96133 8.55589C5.97636 8.54048 5.99144 8.52502 6.00657 8.5095L8.15898 6.3019C8.54453 5.90646 9.17764 5.89845 9.57308 6.284ZM14.4269 6.284C14.8223 5.89845 15.4554 5.90646 15.841 6.3019L18.0386 8.5559C18.6431 9.17575 19.1646 9.71065 19.5262 10.1958C19.9141 10.7163 20.2067 11.2928 20.2067 12C20.2067 12.7072 19.9141 13.2837 19.5262 13.8042C19.1646 14.2894 18.6431 14.8242 18.0386 15.4441L15.841 17.6981C15.4554 18.0935 14.8223 18.1016 14.4269 17.716C14.0314 17.3305 14.0234 16.6973 14.409 16.3019L16.5614 14.0943C17.224 13.4147 17.65 12.9748 17.9225 12.6091C18.1777 12.2666 18.2067 12.1064 18.2067 12C18.2067 11.8936 18.1777 11.7334 17.9225 11.3909C17.65 11.0252 17.224 10.5853 16.5614 9.9057L14.409 7.6981C14.0234 7.30266 14.0314 6.66955 14.4269 6.284Z" fill="white"/>
</svg>

<svg width="24" height="24" fill="none" xmlns="http://www.w3.org/2000/svg"><path fill-rule="evenodd" clip-rule="evenodd" d="M9.573 6.284a1 1 0 0 1 .018 1.414L7.439 9.906c-.663.68-1.089 1.12-1.362 1.485-.255.342-.284.503-.284.609 0 .106.03.267.284.61.273.365.699.805 1.362 1.484l2.152 2.208a1 1 0 0 1-1.432 1.396l-2.198-2.254c-.604-.62-1.126-1.155-1.487-1.64-.388-.52-.68-1.097-.68-1.804 0-.707.292-1.284.68-1.804.361-.485.883-1.02 1.487-1.64l.046-.046 2.152-2.208a1 1 0 0 1 1.414-.018zm4.854 0a1 1 0 0 1 1.414.018l2.198 2.254c.604.62 1.126 1.155 1.487 1.64.388.52.68 1.097.68 1.804 0 .707-.292 1.284-.68 1.804-.361.485-.883 1.02-1.487 1.64l-2.198 2.254a1 1 0 1 1-1.432-1.396l2.152-2.208c.663-.68 1.089-1.12 1.361-1.485.256-.342.285-.503.285-.609 0-.106-.03-.267-.285-.61-.272-.365-.698-.805-1.36-1.484l-2.153-2.208a1 1 0 0 1 .018-1.414z" fill="#fff"/></svg>
